assets/svg/arrow.svg

<svg fill="none" height="16" viewBox="0 0 16 16" width="16" xmlns="http://www.w3.org/2000/svg"><path clip-rule="evenodd" d="m-.00000038 7.41636h13.76560038l-6.59099-6.590972.82539-.82539026 8 8.00000226-8 8-.82539-.8254 6.59099-6.59096h-13.76560032z" fill="#fff" fill-rule="evenodd"/></svg>

<svg width="16" height="16" viewBox="0 0 16 16" fill="none" xmlns="http://www.w3.org/2000/svg">
<path fill-rule="evenodd" clip-rule="evenodd" d="M-3.75203e-07 7.41636L13.7656 7.41636L7.17461 0.825388L8 -2.25704e-06L16 8L8 16L7.17461 15.1746L13.7656 8.58364L-3.24179e-07 8.58364L-3.75203e-07 7.41636Z" fill="white"/>
</svg>
